gtk-icons/Papirus-GTK/16x16/actions/snap-bounding-box-corners.svg

<?xml version="1.0" encoding="UTF-8" standalone="no"?>
<!-- Created with Inkscape (http://www.inkscape.org/) -->
<svg id="svg7384" xmlns:rdf="http://www.w3.org/1999/02/22-rdf-syntax-ns#" style="enable-background:new" xmlns="http://www.w3.org/2000/svg" xmlns:osb="http://www.openswatchbook.org/uri/2009/osb" height="16" width="16" version="1.1" xmlns:cc="http://creativecommons.org/ns#" xmlns:dc="http://purl.org/dc/elements/1.1/">
 <metadata id="metadata90">
  <rdf:RDF>
   <cc:Work rdf:about="">
    <dc:format>image/svg+xml</dc:format>
    <dc:type rdf:resource="http://purl.org/dc/dcmitype/StillImage"/>
    <dc:title>Paper Symbolic Icon Theme</dc:title>
   </cc:Work>
  </rdf:RDF>
 </metadata>
 <title id="title8473">Paper Symbolic Icon Theme</title>
 <defs id="defs7386">
  <filter id="filter7554" color-interpolation-filters="sRGB">
   <feBlend id="feBlend7556" in2="BackgroundImage" mode="darken"/>
  </filter>
 </defs>
 <g id="layer1" transform="translate(-504 -206)">
  <rect id="rect5385-6-5" style="color:#000000" height="16" width="16" y="206.25" x="504.25" stroke-width=".1" fill="none"/>
  <rect id="rect5385-6-0-1" style="color:#000000" height="16" width="16" y="206.25" x="504.25" stroke-width=".1" fill="none"/>
  <path id="path9141-9" opacity=".5" style="enable-background:accumulate;color-rendering:auto;text-decoration-color:#000000;color:#000000;isolation:auto;mix-blend-mode:normal;shape-rendering:auto;solid-color:#000000;block-progression:tb;text-decoration-line:none;text-decoration-style:solid;image-rendering:auto;white-space:normal;text-indent:0;text-transform:none" d="m14 1.5v0.5 1 0.5h1v-0.5-1-0.5h-1zm0 3v0.5 1 0.5h1v-0.5-1-0.5h-1zm0 3v0.5 1 0.5h1v-0.5-1-0.5h-1zm0 3v0.5 1 0.5h1v-0.5-1-0.5h-1zm-1 2.5v3h3v-3h-3zm-11.5 1v1h0.5 1 0.5v-1h-0.5-1-0.5zm3 0v1h0.5 1 0.5v-1h-0.5-1-0.5zm3 0v1h0.5 1 0.5v-1h-0.5-1-0.5zm3 0v1h0.5 1 0.5v-1h-0.5-1-0.5z" transform="translate(504 206)"/>
 </g>
</svg>

<?xml version="1.0" encoding="UTF-8" standalone="no"?>
<!-- Created with Inkscape (http://www.inkscape.org/) -->

<svg
   xmlns:osb="http://www.openswatchbook.org/uri/2009/osb"
   xmlns:dc="http://purl.org/dc/elements/1.1/"
   xmlns:cc="http://creativecommons.org/ns#"
   xmlns:rdf="http://www.w3.org/1999/02/22-rdf-syntax-ns#"
   xmlns:svg="http://www.w3.org/2000/svg"
   xmlns="http://www.w3.org/2000/svg"
   xmlns:sodipodi="http://sodipodi.sourceforge.net/DTD/sodipodi-0.dtd"
   xmlns:inkscape="http://www.inkscape.org/namespaces/inkscape"
   sodipodi:docname="snap-bounding-box-corners.svg"
   inkscape:export-filename="/home/sam/source-symbolic.png"
   inkscape:export-xdpi="270"
   inkscape:export-ydpi="270"
   height="16"
   id="svg7384"
   style="enable-background:new"
   version="1.1"
   inkscape:version="0.91 r"
   width="16">
  <sodipodi:namedview
     inkscape:bbox-nodes="true"
     inkscape:bbox-paths="true"
     bordercolor="#666666"
     borderlayer="false"
     borderopacity="1"
     inkscape:current-layer="layer1"
     inkscape:cx="-4.1664296"
     inkscape:cy="4.1828883"
     gridtolerance="10"
     inkscape:guide-bbox="true"
     guidetolerance="10"
     id="namedview88"
     inkscape:object-nodes="true"
     inkscape:object-paths="true"
     objecttolerance="10"
     pagecolor="#f7f7f7"
     inkscape:pageopacity="1"
     inkscape:pageshadow="2"
     showborder="true"
     showgrid="false"
     showguides="true"
     inkscape:showpageshadow="false"
     inkscape:snap-bbox="true"
     inkscape:snap-bbox-edge-midpoints="false"
     inkscape:snap-bbox-midpoints="false"
     inkscape:snap-center="false"
     inkscape:snap-global="true"
     inkscape:snap-grids="true"
     inkscape:snap-intersection-paths="true"
     inkscape:snap-midpoints="true"
     inkscape:snap-nodes="true"
     inkscape:snap-object-midpoints="true"
     inkscape:snap-others="true"
     inkscape:snap-page="false"
     inkscape:snap-smooth-nodes="true"
     inkscape:snap-to-guides="true"
     inkscape:window-height="841"
     inkscape:window-maximized="1"
     inkscape:window-width="1600"
     inkscape:window-x="-4"
     inkscape:window-y="33"
     inkscape:zoom="14.06">
    <inkscape:grid
       color="#000000"
       dotted="false"
       empcolor="#0800ff"
       empopacity="0.4627451"
       empspacing="4"
       enabled="true"
       id="grid4866"
       opacity="0.16470588"
       originx="-504.00018px"
       originy="-628px"
       snapvisiblegridlinesonly="true"
       spacingx="0.25px"
       spacingy="0.25px"
       type="xygrid"
       visible="true" />
  </sodipodi:namedview>
  <metadata
     id="metadata90">
    <rdf:RDF>
      <cc:Work
         rdf:about="">
        <dc:format>image/svg+xml</dc:format>
        <dc:type
           rdf:resource="http://purl.org/dc/dcmitype/StillImage" />
        <dc:title>Paper Symbolic Icon Theme</dc:title>
      </cc:Work>
    </rdf:RDF>
  </metadata>
  <title
     id="title8473">Paper Symbolic Icon Theme</title>
  <defs
     id="defs7386">
    <linearGradient
       id="linearGradient5606"
       osb:paint="solid">
      <stop
         id="stop5608"
         offset="0"
         style="stop-color:#000000;stop-opacity:1;" />
    </linearGradient>
    <filter
       inkscape:collect="always"
       color-interpolation-filters="sRGB"
       id="filter7554">
      <feBlend
         inkscape:collect="always"
         id="feBlend7556"
         in2="BackgroundImage"
         mode="darken" />
    </filter>
  </defs>
  <g
     inkscape:groupmode="layer"
     id="layer9"
     inkscape:label="status"
     style="display:inline"
     transform="translate(-745.00038,411)" />
  <g
     inkscape:groupmode="layer"
     id="layer10"
     inkscape:label="devices"
     style="display:inline;filter:url(#filter7554)"
     transform="translate(-745.00038,411)" />
  <g
     inkscape:groupmode="layer"
     id="layer1"
     inkscape:label="places"
     style="display:inline"
     transform="translate(-504.00018,-206)">
    <rect
       y="206.25"
       x="504.25018"
       height="16"
       width="16"
       id="rect5385-6-5"
       style="color:#000000;fill:none;stroke-width:0.1" />
    <rect
       y="206.25056"
       x="504.25018"
       height="16"
       width="16"
       id="rect5385-6-0-1"
       style="color:#000000;fill:none;stroke-width:0.1" />
    <path
       style="color:#000000;font-style:normal;font-variant:normal;font-weight:normal;font-stretch:normal;font-size:medium;line-height:normal;font-family:sans-serif;text-indent:0;text-align:start;text-decoration:none;text-decoration-line:none;text-decoration-style:solid;text-decoration-color:#000000;letter-spacing:normal;word-spacing:normal;text-transform:none;direction:ltr;block-progression:tb;writing-mode:lr-tb;baseline-shift:baseline;text-anchor:start;white-space:normal;clip-rule:nonzero;display:inline;overflow:visible;visibility:visible;opacity:0.5;isolation:auto;mix-blend-mode:normal;color-interpolation:sRGB;color-interpolation-filters:linearRGB;solid-color:#000000;solid-opacity:1;fill:#000000;fill-opacity:1;fill-rule:nonzero;stroke:none;stroke-width:1;stroke-linecap:square;stroke-linejoin:miter;stroke-miterlimit:4;stroke-dasharray:1, 2;stroke-dashoffset:2.5;stroke-opacity:1;color-rendering:auto;image-rendering:auto;shape-rendering:auto;text-rendering:auto;enable-background:accumulate"
       d="M 14 1.5 L 14 2 L 14 3 L 14 3.5 L 15 3.5 L 15 3 L 15 2 L 15 1.5 L 14 1.5 z M 14 4.5 L 14 5 L 14 6 L 14 6.5 L 15 6.5 L 15 6 L 15 5 L 15 4.5 L 14 4.5 z M 14 7.5 L 14 8 L 14 9 L 14 9.5 L 15 9.5 L 15 9 L 15 8 L 15 7.5 L 14 7.5 z M 14 10.5 L 14 11 L 14 12 L 14 12.5 L 15 12.5 L 15 12 L 15 11 L 15 10.5 L 14 10.5 z M 13 13 L 13 16 L 16 16 L 16 13 L 13 13 z M 1.5 14 L 1.5 15 L 2 15 L 3 15 L 3.5 15 L 3.5 14 L 3 14 L 2 14 L 1.5 14 z M 4.5 14 L 4.5 15 L 5 15 L 6 15 L 6.5 15 L 6.5 14 L 6 14 L 5 14 L 4.5 14 z M 7.5 14 L 7.5 15 L 8 15 L 9 15 L 9.5 15 L 9.5 14 L 9 14 L 8 14 L 7.5 14 z M 10.5 14 L 10.5 15 L 11 15 L 12 15 L 12.5 15 L 12.5 14 L 12 14 L 11 14 L 10.5 14 z "
       transform="translate(504.00018,206)"
       id="path9141-9" />
  </g>
  <g
     inkscape:groupmode="layer"
     id="layer14"
     inkscape:label="mimetypes"
     style="display:inline"
     transform="translate(-745.00038,411)" />
  <g
     inkscape:groupmode="layer"
     id="layer15"
     inkscape:label="emblems"
     style="display:inline"
     transform="translate(-745.00038,411)" />
  <g
     inkscape:groupmode="layer"
     id="g71291"
     inkscape:label="emotes"
     style="display:inline"
     transform="translate(-745.00038,411)" />
  <g
     inkscape:groupmode="layer"
     id="layer2"
     inkscape:label="categories"
     style="display:inline"
     transform="translate(-504.00018,-56)" />
  <g
     inkscape:groupmode="layer"
     id="g6058"
     inkscape:label="apps"
     style="display:inline"
     transform="translate(-504.00018,-56)" />
  <g
     inkscape:groupmode="layer"
     id="layer12"
     inkscape:label="actions"
     style="display:inline"
     transform="translate(-745.00038,411)" />
</svg>
